media/img/author-noun-grape-average.svg

<svg width="346" height="398" viewBox="0 0 346 398" fill="none" xmlns="http://www.w3.org/2000/svg"><g clip-path="url(#clip0_630_3225)"><path d="M296.884 83.902C276.296 85.918 255 99.266 233.448 111.38c.27 9.093.075 18.54-.593 28.065 11.328-4.132 24.245.113 33.432 8.426 5.549 5.298 9.09 11.981 10.405 19.056 6.107.451 12.965 2.717 18.375 6.703 14.581 1.487 35.222 10.393 49.994 20.347-3.453-14.89-8.488-35.23-14.43-48.549-1.131-2.571 1.969-5.829 4.577-4.815l14.596 5.404c-3.942-12.715-9.601-22.955-18.707-29.924-10.853-8.309-26.3-13.238-48.341-15.215-2.878-.308-3.98-4.897-1.565-6.529l15.697-10.443-.004-.004zm-80.741-36.223a1.951 1.951 0 00-.683-.165c-7.944-.723 8.355 44.625 3.669 92.492l9.897 3.265c4.539-46.371-5.059-92.128-12.88-95.596l-.003.004zm-46.185 22.106c-2.691-1.59-6.024-3.276-9.349-4.773l11.351 15.017c1.714 2.316-.844 6.27-3.658 5.653-21.442-5.078-36.385-4.375-48.654 1.257-9.535 4.378-17.659 12.944-25.62 23.828l10.485-3.775c3.317.47 5.885 1.368 3.742 5.772-10.143 10.825-21.762 28.737-29.978 41.741 13.787-4.039 27.363-5.881 37.932-6.357a36.05 36.05 0 0114.04-9.89c8.148-3.2 16.994-3.335 25.123-.329 11.061-17.626 32.178-22.748 49.477-12.249 4.587 2.862 8.416 6.621 11.152 10.925.204-6.494.083-13.018-.201-19.435-11.519-16.436-26.474-35.873-45.843-47.383l.001-.002zm87.064 80.113c-10.607-6.685-23.108-6.491-35.609 4.104 1.137 7.718-2.466 17.6-7.9 24.434.919 6.264 3.943 12.059 8.51 16.419 11.381 10.867 29.305 10.336 40.235-1.218s10.627-29.547-.752-40.413a38.88 38.88 0 00-4.482-3.325l-.002-.001zm31.564 28.025c-3.365-1.965-7.203-3.327-11.302-3.746a36.177 36.177 0 01-9.553 23.931c4.397 10.752 3.103 22.494-2.473 31.921 2.501.774 5.157 1.094 7.797 1.163 15.771.407 28.94-11.894 29.511-27.749.391-10.901-5.277-20.445-13.98-25.52zm-87.473-46.244c-13.343-8.325-30.821-3.992-39.244 9.508-8.422 13.5-4.573 31.006 8.772 39.333 13.344 8.325 30.855 4.145 39.278-9.355 8.422-13.5 4.537-31.161-8.806-39.486zm60.813 71.537c-13.628 9.648-32.454 8.724-44.867-3.128-1.766-1.685-3.298-3.559-4.664-5.555-6.434 8.257-7.951 19.429-3.753 29.136 6.267 14.488 23.011 20.98 37.493 14.529 13.527-6.026 20.089-21.206 15.795-34.983l-.004.001zm-109.684-58.778c-6.344-2.177-13.258-1.999-19.578.482-14.75 5.794-22.154 22.262-16.545 37.029 5.108 13.442 19.192 20.622 32.802 17.423-3.207-9.895-1.947-20.847 3.791-30.039-3.01-7.812-3.351-16.691-.468-24.893l-.002-.002zm55.304 39.794c-11.506 8.962-27.693 10.366-40.64 2.288a35.026 35.026 0 01-10.221-9.683c-3.979 9.261-2.918 20.158 3.13 28.406 9.214 12.563 26.67 15.181 39.374 6.048.264-8.571 3.514-16.984 9.563-23.527a35.31 35.31 0 01-1.207-3.532h.001zm75.547 52.954c-7.134 1.922-14.801 1.424-22.223-1.168-1.879 2.066-3.985 3.95-6.353 5.559a35.172 35.172 0 0111.851 17.579 28.81 28.81 0 0016.725-21.97zm-35.657 8.176c-9.439 3.689-19.637 3.008-28.192-1.056-1.453 10.307-7.251 19.224-15.503 24.848-.357 11.218 5.701 21.449 15.704 26.332 14.137 6.898 31.356.92 38.369-13.359 6.574-13.389 1.881-29.157-10.376-36.763l-.002-.002zm-47.576-26.113c-11.166 6.24-24.614 5.882-35.23-.289-5.791 5.522-9.098 13.208-9.037 21.21.118 15.857 12.972 28.406 28.748 28.122 15.428-.279 27.672-12.853 28.104-28.228-5.904-4.757-11.047-12.54-12.586-20.814l.001-.001zm-48.041-13.175c-12.195 3.354-24.914-.143-33.679-8.449a29.312 29.312 0 00-4.433 11.519c-2.464 15.691 8.078 30.175 23.665 32.487 3.384-2.005 7.161-3.448 11.184-4.265a36.326 36.326 0 0110.175-22.617c-2.397-2.49-5.14-5.352-6.912-8.678v.003zm44.841 66.861c-1.936.766-3.905 1.4-5.986 1.819-1.004 13.331-9.388 24.79-21.181 30.167 2.419 11.44 11.44 20.225 22.926 22.108 15.038 2.465 29.356-7.363 32.718-22.175-2.984-.574-5.924-1.569-8.774-2.96-11.266-5.498-18.689-16.571-19.704-28.959h.001zm-47.853-28.401c-13.463 3.238-22.847 15.737-22.09 29.732.852 15.828 14.321 27.857 30.077 26.833 14.127-.918 25.217-11.952 26.748-25.635-17.819-.084-32.521-13.522-34.736-30.93h.001zm13.938 62.792c-1.635.32-3.591.778-5.548.904-9.839.637-19.07-2.877-25.864-8.994-3.929 3.636-6.888 8.42-8.339 13.579-4.309 15.303 4.373 30.911 19.553 35.082 14.888 4.09 30.435-4.481 35.087-19.243a35.065 35.065 0 01-14.891-21.326l.002-.002z" fill="url(#paint0_linear_630_3225)" fill-opacity=".15"/></g><defs><linearGradient id="paint0_linear_630_3225" x1="271.964" y1="68.354" x2="109.533" y2="328.7" gradientUnits="userSpaceOnUse"><stop stop-color="#3F3F3F"/><stop offset="1"/></linearGradient><clipPath id="clip0_630_3225"><path fill="#fff" transform="rotate(31.96 81.324 283.982)" d="M0 0h257.693v307.273H0z"/></clipPath></defs></svg>

<svg width="346" height="398" viewBox="0 0 346 398" fill="none" xmlns="http://www.w3.org/2000/svg">
<g clip-path="url(#clip0_630_3225)">
<path d="M296.884 83.9019C276.296 85.9185 255 99.2658 233.448 111.38C233.718 120.473 233.523 129.92 232.855 139.445C244.183 135.313 257.1 139.558 266.287 147.871C271.836 153.169 275.377 159.852 276.692 166.927C282.799 167.378 289.657 169.644 295.067 173.63C309.648 175.117 330.289 184.023 345.061 193.977C341.608 179.087 336.573 158.747 330.631 145.428C329.5 142.857 332.6 139.599 335.208 140.613L349.804 146.017C345.862 133.302 340.203 123.062 331.097 116.093C320.244 107.784 304.797 102.855 282.756 100.878C279.878 100.57 278.776 95.9812 281.191 94.3491L296.888 83.9062L296.884 83.9019ZM216.143 47.6789C215.89 47.5677 215.707 47.5359 215.46 47.5136C207.516 46.791 223.815 92.1391 219.129 140.006L229.026 143.271C233.565 96.8998 223.967 51.1431 216.146 47.6753L216.143 47.6789ZM169.958 69.7855C167.267 68.1947 163.934 66.5085 160.609 65.012L171.96 80.0293C173.674 82.345 171.116 86.2994 168.302 85.6818C146.86 80.6036 131.917 81.3069 119.648 86.9392C110.113 91.3168 101.989 99.8834 94.0281 110.767L104.513 106.992C107.83 107.462 110.398 108.36 108.255 112.764C98.1117 123.589 86.4927 141.501 78.2771 154.505C92.0643 150.466 105.64 148.624 116.209 148.148C119.916 143.892 124.67 140.449 130.249 138.258C138.397 135.058 147.243 134.923 155.372 137.929C166.433 120.303 187.55 115.181 204.849 125.68C209.436 128.542 213.265 132.301 216.001 136.605C216.205 130.111 216.084 123.587 215.8 117.17C204.281 100.734 189.326 81.2971 169.957 69.787L169.958 69.7855ZM257.022 149.898C246.415 143.213 233.914 143.407 221.413 154.002C222.55 161.72 218.947 171.602 213.513 178.436C214.432 184.7 217.456 190.495 222.023 194.855C233.404 205.722 251.328 205.191 262.258 193.637C273.188 182.083 272.885 164.09 261.506 153.224C260.073 151.998 258.539 150.853 257.024 149.899L257.022 149.898ZM288.586 177.923C285.221 175.958 281.383 174.596 277.284 174.177C277.151 182.754 273.959 191.318 267.731 198.108C272.128 208.86 270.834 220.602 265.258 230.029C267.759 230.803 270.415 231.123 273.055 231.192C288.826 231.599 301.995 219.298 302.566 203.443C302.957 192.542 297.289 182.998 288.586 177.923L288.586 177.923ZM201.113 131.679C187.77 123.354 170.292 127.687 161.869 141.187C153.447 154.687 157.296 172.193 170.641 180.52C183.985 188.845 201.496 184.665 209.919 171.165C218.341 157.665 214.456 140.004 201.113 131.679ZM261.926 203.216C248.298 212.864 229.472 211.94 217.059 200.088C215.293 198.403 213.761 196.529 212.395 194.533C205.961 202.79 204.444 213.962 208.642 223.669C214.909 238.157 231.653 244.649 246.135 238.198C259.662 232.172 266.224 216.992 261.93 203.215L261.926 203.216ZM152.242 144.438C145.898 142.261 138.984 142.439 132.664 144.92C117.914 150.714 110.51 167.182 116.119 181.949C121.227 195.391 135.311 202.571 148.921 199.372C145.714 189.477 146.974 178.525 152.712 169.333C149.702 161.521 149.361 152.642 152.244 144.44L152.242 144.438ZM207.546 184.232C196.04 193.194 179.853 194.598 166.906 186.52C162.757 183.932 159.331 180.626 156.685 176.837C152.706 186.098 153.767 196.995 159.815 205.243C169.029 217.806 186.485 220.424 199.189 211.291C199.453 202.72 202.703 194.307 208.752 187.764C208.283 186.606 207.892 185.44 207.545 184.232L207.546 184.232ZM283.093 237.186C275.959 239.108 268.292 238.61 260.87 236.018C258.991 238.084 256.885 239.968 254.517 241.577C260.275 246.155 264.339 252.308 266.368 259.156C275.364 255.129 281.618 246.845 283.093 237.186L283.093 237.186ZM247.436 245.362C237.997 249.051 227.799 248.37 219.244 244.306C217.791 254.613 211.993 263.53 203.741 269.154C203.384 280.372 209.442 290.603 219.445 295.486C233.582 302.384 250.801 296.406 257.814 282.127C264.388 268.738 259.695 252.97 247.438 245.364L247.436 245.362ZM199.86 219.249C188.694 225.489 175.246 225.131 164.63 218.96C158.839 224.482 155.532 232.168 155.593 240.17C155.711 256.027 168.565 268.576 184.341 268.292C199.769 268.013 212.013 255.439 212.445 240.064C206.541 235.307 201.398 227.524 199.859 219.25L199.86 219.249ZM151.819 206.074C139.624 209.428 126.905 205.931 118.14 197.625C115.868 201.084 114.353 205.032 113.707 209.144C111.243 224.835 121.785 239.319 137.372 241.631C140.756 239.626 144.533 238.183 148.556 237.366C149.184 228.89 152.784 220.866 158.731 214.749C156.334 212.259 153.591 209.397 151.819 206.071L151.819 206.074ZM196.66 272.935C194.724 273.701 192.755 274.335 190.674 274.754C189.67 288.085 181.286 299.544 169.493 304.921C171.912 316.361 180.933 325.146 192.419 327.029C207.457 329.494 221.775 319.666 225.137 304.854C222.153 304.28 219.213 303.285 216.363 301.894C205.097 296.396 197.674 285.323 196.659 272.935L196.66 272.935ZM148.807 244.534C135.344 247.772 125.96 260.271 126.717 274.266C127.569 290.094 141.038 302.123 156.794 301.099C170.921 300.181 182.011 289.147 183.542 275.464C165.723 275.38 151.021 261.942 148.806 244.534L148.807 244.534ZM162.745 307.326C161.11 307.646 159.154 308.104 157.197 308.23C147.358 308.867 138.127 305.353 131.333 299.236C127.404 302.872 124.445 307.656 122.994 312.815C118.685 328.118 127.367 343.726 142.547 347.897C157.435 351.987 172.982 343.416 177.634 328.654C170.253 323.794 164.848 316.28 162.743 307.328L162.745 307.326Z" fill="url(#paint0_linear_630_3225)" fill-opacity="0.15"/>
</g>
<defs>
<linearGradient id="paint0_linear_630_3225" x1="271.964" y1="68.354" x2="109.533" y2="328.7" gradientUnits="userSpaceOnUse">
<stop stop-color="#3F3F3F"/>
<stop offset="1"/>
</linearGradient>
<clipPath id="clip0_630_3225">
<rect width="257.693" height="307.273" fill="white" transform="translate(162.648) rotate(31.9603)"/>
</clipPath>
</defs>
</svg>
